X:1
T:Title
%%score { ( 1 4 ) | ( 2 3 ) }
L:1/8
Q:1/4=100
M:4/4
K:A
V:1 treble nm="Grand Piano"
V:4 treble 
V:2 bass 
V:3 bass 
V:1
 [CA][CA][CA][K:bass][E,C] [A,CE]2[K:treble] [CEA]2 | AGGA [GB]4 | BBBE G2 [GB]2 | BAAB c4 | %4
w: Will~H.~Ruebush * * * * *||||
 cccE A2 c2 | [EFc][DFB][B,FB][Fc] [Fd]4 | [Fd][Fd][Fc][Fc] [FB]2 [Fd]2 | ccBB [A,CA]4 | %8
w: ||||
 [Ac]4 [ce]4 | [ce][Bd][Bd][Bd] [Gd]4 | z4 [Bd]4[K:bass] | [Bd][Ac][Ac][Ac] c4 | cccE A2 c2 | %13
w: |||||
 [EFc][DFB][B,FB][Fc] [Fd]4 | [Fd][Fd][Fc][Fc] [FB]2 [Fd]2 | ccBB [CA]4 |] %16
w: |||
V:2
 [A,,E,][A,,E,][A,,E,]A,, A,,2 A,,2 | [E,CE][E,B,E][E,B,E][E,CE] [E,D]4 | %2
 [E,G,E][E,G,E][E,G,E][E,G,] [E,B,E]2 [E,D]2 | [A,DE][A,CE][A,CE][A,DE] [A,EA]4 | %4
 [A,E][A,E][A,E][A,C] [A,CE]2 [A,EA]2 | D,D,D,[C,^A,] [B,,B,]4 | %6
 [B,,B,][B,,B,][C,A,][C,A,] [D,B,]2 [B,,F,]2 | [E,A,E][E,A,E][E,G,D][E,G,D] A,,4 | %8
 A,2 A,A, z B,CD | [E,E][E,E][E,B,][E,G,] E,4 | z4 G,4 | [A,,A,][A,,A,][C,A,][E,A,] [A,E]4 | %12
 [A,E][A,E][A,E][A,C] [A,CE]2 [A,EA]2 | D,D,D,[C,^A,] [B,,B,]4 | %14
 [B,,B,][B,,B,][C,^A,][C,A,] [D,B,]2 [B,,F,]2 | [E,A,E][E,A,E][E,G,D][E,G,D] [A,,A,]4 |] %16
V:3
 x8 | x8 | x8 | x8 | x8 | x8 | x8 | x8 | z4 A,4 | x8 | E,2 E,E, .E,2 z2 | x8 | x8 | x8 | x8 | x8 |] %16
V:4
 x3[K:bass] x3[K:treble] x2 | x8 | x8 | x8 | x8 | x8 | x8 | x8 | x8 | x8 | %10
 [GB]4 z[K:bass] D,C,B,, | x8 | x8 | x8 | x8 | x8 |] %16

